img/svg/placeholder-vehicle.svg

<svg width="512" height="512" viewBox="0 0 512 512" fill="none" xmlns="http://www.w3.org/2000/svg">
<path d="M285.628 42.4751C246.026 42.4751 212.628 70.9881 212.628 107.475C212.628 125.905 221.156 142.295 234.694 154.008L243.167 137.338C235.291 129.136 230.627 118.671 230.627 107.475C230.627 82.1051 254.537 60.4751 285.627 60.4751C316.717 60.4751 340.627 82.1051 340.627 107.475C340.627 124.878 329.374 140.521 312.271 148.629L304.789 170.185C306.679 169.728 308.551 169.201 310.402 168.605L319.56 184.618C309.234 191.881 299.24 200.884 288.526 212.09L369.876 391.482C420.141 393.8 468.64 367.147 493.63 323.472L385.8 158.635C365.634 162.662 349.41 167.689 334.925 175.233L326.835 161.089C345.892 149.474 358.628 129.999 358.628 107.476C358.628 70.9891 325.23 42.4761 285.628 42.4761V42.4751ZM162.962 48.4221C160.302 48.4521 157.508 48.8921 154.81 49.7701C148.64 51.7741 143.42 55.9041 141.15 60.3601L140.862 60.9301L75.9579 153.227C73.8229 157.679 73.5759 164.174 75.5009 170.197C77.4709 176.354 81.5459 181.502 85.7029 183.619L229.385 256.779C233.457 258.854 239.975 259.184 246.033 257.206C251.978 255.266 257.029 251.321 259.436 246.714L284.796 172.454C284.846 172.454 284.896 172.457 284.946 172.458L291.273 154.228C291.187 154.236 291.098 154.238 291.013 154.246L295.918 139.881L296.208 139.313C298.478 134.857 298.748 128.193 296.758 122.031C294.768 115.869 290.658 110.676 286.324 108.469L254.246 92.1361C247.703 100.314 245.696 112.004 253.9 123.006L256.01 126.538L266.298 131.938L258.042 148.152L257.896 148.082L249.778 164.052C249.823 164.075 249.868 164.095 249.913 164.117L243.61 176.493L142.02 124.765L160.626 88.2271L164.708 80.2071L195.562 95.9191C197.118 86.1091 200.484 76.6711 205.897 67.5151L172.103 50.3101C169.589 49.0301 166.382 48.3851 162.962 48.4221ZM380.89 179.802L404.972 223.622L333.108 263.112L313.36 227.182L309.026 219.295L380.89 179.803V179.802ZM373.784 204.246L333.472 226.4L340.214 238.67L380.526 216.516L373.784 204.246ZM114.5 218.482L93.6299 259.475L163.138 294.867L184.011 253.875L114.5 218.482ZM411.714 235.892L435.794 279.709L363.931 319.199L344.186 283.269L339.852 275.382L411.716 235.89L411.714 235.892ZM404.608 260.334L364.294 282.488L371.038 294.758L411.351 272.604L404.609 260.334H404.608ZM99.7199 282.774H99.7179L18.3719 442.53L24.4949 461.36L101.759 309.623L117.797 317.791L40.5349 469.526L62.91 462.251L75.8779 458.034L68.8919 436.478L90.3879 429.508L83.3919 408L104.912 401.002L99.5419 384.498L140.712 303.646L99.7199 282.774Z" fill="#444856"/>
</svg>

<svg xmlns="http://www.w3.org/2000/svg" viewBox="0 0 512 512" style="height: 512px; width: 512px;"><g class="" transform="translate(0,0)" style=""><path d="M285.628 42.475c-39.602 0-73 28.513-73 65 0 18.43 8.528 34.82 22.066 46.533l8.473-16.67c-7.876-8.202-12.54-18.667-12.54-29.863 0-25.37 23.91-47 55-47s55 21.63 55 47c0 17.403-11.253 33.046-28.356 41.154l-7.482 21.556a78.96 78.96 0 0 0 5.613-1.58l9.158 16.013c-10.326 7.263-20.32 16.266-31.034 27.472l81.35 179.392c50.265 2.318 98.764-24.335 123.754-68.01L385.8 158.635c-20.166 4.027-36.39 9.054-50.875 16.598l-8.09-14.144c19.057-11.615 31.793-31.09 31.793-53.613 0-36.487-33.398-65-73-65zm-122.666 5.947c-2.66.03-5.454.47-8.152 1.348-6.17 2.004-11.39 6.134-13.66 10.59l-.288.57-64.904 92.297c-2.135 4.452-2.382 10.947-.457 16.97 1.97 6.157 6.045 11.305 10.202 13.422l143.682 73.16c4.072 2.075 10.59 2.405 16.648.427 5.945-1.94 10.996-5.885 13.403-10.492l25.36-74.26c.05 0 .1.003.15.004l6.327-18.23c-.086.008-.175.01-.26.018l4.905-14.365.29-.568c2.27-4.456 2.54-11.12.55-17.282-1.99-6.162-6.1-11.355-10.434-13.562l-32.078-16.333c-6.543 8.178-8.55 19.868-.346 30.87l2.11 3.532 10.288 5.4-8.256 16.214-.146-.07-8.118 15.97c.045.023.09.043.135.065l-6.303 12.376-101.59-51.728 18.606-36.538 4.082-8.02 30.854 15.712c1.556-9.81 4.922-19.248 10.335-28.404L172.103 50.31c-2.514-1.28-5.72-1.925-9.14-1.888zm217.928 131.38 24.082 43.82-71.864 39.49-19.748-35.93-4.334-7.887 71.864-39.492zm-7.106 24.444L333.472 226.4l6.742 12.27 40.312-22.154-6.742-12.27zM114.5 218.482l-20.87 40.993 69.508 35.392 20.873-40.992-69.51-35.393zm297.214 17.41 24.08 43.817-71.863 39.49-19.745-35.93-4.334-7.887 71.864-39.492zm-7.106 24.442-40.314 22.154 6.744 12.27 40.313-22.154-6.742-12.27zM99.72 282.774h-.002L18.372 442.53l6.123 18.83 77.264-151.737 16.038 8.168-77.262 151.735 22.375-7.275 12.968-4.217-6.986-21.556 21.496-6.97L83.392 408l21.52-6.998-5.37-16.504 41.17-80.852-40.992-20.873z" fill="#fff" fill-opacity="1"></path></g></svg>
